X:1
T:Homer F. Morris
T:James Rowe
T:When the Hand of Love Touched Me
%%score { ( 1 2 ) | ( 3 4 ) }
L:1/8
M:4/4
K:Ab
V:1 treble 
V:2 treble 
V:3 bass 
V:4 bass 
V:1
{/x} E>A | c>=Bc>_B A2 G>A | B>=AB>F d2 c>B | A2 A2 B2 E2 | c6 E>A | c>=Bc>_B A2 G>A | %6
w: I could|feel the bur\- den roll from my|wear\- y, sin\- ful soul, When the|hand of love touched|me; And my|heart that had been sad found a|
w: I was|lost in dark\- est night, but my|soul be\- held the light, When the|hand of love touched|me; Great des\-|pair had filled my heart, but how|
w: When I|heard His wel\- come voice, how it|made my heart re\- joice, When the|hand of love touched|me; When thro'|grace He made me whole how His|
 B>AB>F[Q:1/4=48]"^Largo" !fermata!d2[Q:1/4=120]"^Allegretto" c>B | A2 e2 G2 F2 | E6"^Chrous" A>B | %9
w: song that made it glad, When the|hand of love touched|me. When the|
w: soon it did de\- part, When the|hand of love touched|me. * *|
w: glo\- ry filled my soul, When the|hand of love touched|me. * *|
 c2 d2 c2 f2 | e6 A>B | c2 d2 B2 c2 | A6 E>A | c>=Bc>_B A2 A>B | %14
w: hand of love touched|me, When the|hand of love touched|me, I could|feel the bur\- den roll from my|
w: |||||
w: |||||
 c>Bc>d[Q:1/4=48]"^Largo" !fermata!e2[Q:1/4=120]"^Allegretto" d>d | c2 A2 c2 B2 | A6 |] %17
w: wear\- y, sin\- ful soul, When the|hand of love touched|me.|
w: |||
w: |||
V:2
 C>C | E>=DE>_D C2 D>E | D>DD>D F2 F>F | E2 E2 E2 E2 | E6 C>C | E>=DE>_D C2 D>E | D>DD>D F2 F>F | %7
w: |||||||
 E2 E2 E2 =D2 | E6 C>D | E2 F2 E2 A2 | A2 G2 A2 E>E | A2 A2 G2 G2 | A2 F2 E2 C>C | %13
w: |||* touched me * *||* touched me * *|
 E>=DE>_D C2 E>E | E>=DE>E A2 A>A | A2 E2 A2 E2 | E6 |] %17
w: ||||
V:3
 A,>A, | A,>A,E,>E, E,2 E,>A, | F,>=E,F,>A, A,2 E>D | C2 C2 G,2 B,2 | A,6 A,>A, | %5
 A,>A,A,>E, E,2 E,>A, | F,>=E,F,>A, A,2 E>D | C2 B,2 B,2 A,2 | G,6 A,>A, | A,2 A,2 A,2 D2 | %10
 C2 B,2 C2 C>D | E2 F2 D2 E2 | C2 D2 C2 A,>A, | A,>A,A,>A, A,2 A,>G, | A,>A,A,>B, C2 F>F | %15
 E2 C2 E2 D2 | [A,C]6 |] %17
V:4
 A,,>A,, | A,,>A,,A,,>A,, A,,2 B,,>C, | D,>D,D,>D, D,2 D,>D, | E,2 E,2 E,2 G,2 | A,6 A,,>A,, | %5
 A,,>A,,A,,>A,, A,,2 B,,>C, | D,>D,D,>D, !fermata!D,2 D,>D, | E,2 G,2 B,2 B,2 | E,6 A,,>A,, | %9
 A,,2 A,,2 A,2 A,2 | A,2 E,2 A,2 A,>A, | A,2 A,2 E,2 E,2 | A,6 A,,>A,, | %13
 A,,>A,,A,,>A,, A,,2 C,>E, | A,>A,A,>A, !fermata!A,2 D,>D, | E,2 E,2 E,2 E,2 | A,,6 |] %17

